archdroid-icon-theme/Archdroid-Amber/emblems/scalable/emblem-css3.svg

<svg enable-background="new 85.5 210.272 437.29 491.728" height="48" viewBox="85.5 210.272 47.999999 48" width="48" xmlns="http://www.w3.org/2000/svg"><g transform="matrix(.08134578 0 0 .08134578 84.60819 233.262664)"><path d="m305.735 702-177.067-49.155-39.458-442.573h433.58l-39.5 442.503z" fill="#1572b6" transform="translate(0 -443.727997)"/><path d="m449.474 624.599 33.755-378.14h-177.229v417.916z" fill="#33a9dc" transform="translate(0 -443.727997)"/><path d="m167.739-150.158997-.308 54.766h222.909l-.08 35.375h-223.057l-.161 54.766h222.909l-.293 62.462-84.061 29.75-83.639-29.75.063-27.087h-54.765l-.251 65.719 138.353 49.289 138.877-49.289.467-98.873.141-19.834.568-127.292z" fill="#fff"/></g></svg>

<svg enable-background="new 85.5 210.272 437.29 491.728" height="48" version="1.1" viewBox="85.5 210.272 47.999999 48" width="48" x="0" xml:space="preserve" xmlns="http://www.w3.org/2000/svg" y="0"><g transform="matrix(.08134578 0 0 .08134578 84.60819 233.262664)"><path d="M305.735 702L128.668 652.845 89.21 210.272 522.79 210.272 483.29 652.775Z" fill="#1572b6" transform="translate(0 -443.727997)"/><path d="M449.474 624.599L483.229 246.459 306 246.459 306 664.375Z" fill="#33a9dc" transform="translate(0 -443.727997)"/><path d="m167.739-150.158997l-.308 54.766 222.909 0-.08 35.375-223.057 0-.161 54.766 222.909 0-.293 62.462-84.061 29.75-83.639-29.75.063-27.087-54.765 0-.251 65.719L305.358 145.131003 444.235 95.842003 444.702-3.030997 444.843-22.864997l.568-127.292-277.672-.002 0 0z" fill="#fff"/></g></svg>
